svgs/sharp-regular/message-lines.svg

<svg xmlns="http://www.w3.org/2000/svg" viewBox="0 0 512 512"><!--! Font Awesome Pro 6.4.2 by @fontawesome - https://fontawesome.com License - https://fontawesome.com/license (Commercial License) Copyright 2023 Fonticons, Inc. --><path d="M160 512l48-32 96-64H464h48V368 48 0H464 48 0V48 368v48H48h64 48v38.3V464v48zM277.4 376.1L208 422.3V416 368H160 48V48H464V368H304 289.5l-12.1 8.1zM152 144H128v48h24H360h24V144H360 152zm0 96H128v48h24H264h24V240H264 152z"/></svg>

<svg xmlns="http://www.w3.org/2000/svg" viewBox="0 0 512 512"><!--! Font Awesome Pro 6.6.0 by @fontawesome - https://fontawesome.com License - https://fontawesome.com/license (Commercial License) Copyright 2024 Fonticons, Inc. --><path d="M160 512l48-32 96-64 160 0 48 0 0-48 0-320 0-48L464 0 48 0 0 0 0 48 0 368l0 48 48 0 64 0 48 0 0 38.3 0 9.7 0 48zM277.4 376.1L208 422.3l0-6.3 0-48-48 0L48 368 48 48l416 0 0 320-160 0-14.5 0-12.1 8.1zM152 144l-24 0 0 48 24 0 208 0 24 0 0-48-24 0-208 0zm0 96l-24 0 0 48 24 0 112 0 24 0 0-48-24 0-112 0z"/></svg>
